packages/webapp/public/images/template-logos/greenhouse-basic.svg

<svg width="62" height="62" viewBox="0 0 62 62" fill="none" xmlns="http://www.w3.org/2000/svg">
<path d="M31.5382 52.9114C25.7958 52.9954 21.1136 48.0701 21.2213 42.3791C21.2668 39.6418 22.3913 37.0331 24.3501 35.1205C26.309 33.2079 28.9438 32.1461 31.6814 32.166C37.1511 32.1808 41.7306 36.8749 41.8294 42.3495C41.9341 48.1492 37.1531 53.0003 31.5382 52.9114ZM39.9808 42.6044C40.0154 37.9034 36.257 34.066 31.5826 34.0304C26.9083 33.9948 23.0985 37.775 23.059 42.475C23.0348 44.7338 23.9085 46.9098 25.4881 48.5247C27.0678 50.1395 29.224 51.061 31.4829 51.0865C36.1058 51.1448 39.9462 47.3113 39.9808 42.6044ZM21.2421 21.4954C21.2329 20.3732 21.4459 19.2602 21.8687 18.2206C22.2914 17.181 22.9156 16.2353 23.7054 15.4379C24.4952 14.6405 25.4348 14.0072 26.4703 13.5745C27.5058 13.1418 28.6167 12.9181 29.739 12.9165C34.4024 12.9076 38.2439 16.7589 38.2508 21.449C38.2587 26.2063 34.4775 30.0576 29.7864 30.0714C25.0262 30.0843 21.2559 26.2982 21.2421 21.4954ZM23.1104 21.4421C23.1019 22.312 23.2648 23.175 23.5899 23.9819C23.9149 24.7889 24.3957 25.5239 25.0048 26.145C25.6139 26.7661 26.3394 27.2612 27.1398 27.6019C27.9402 27.9427 28.7999 28.1224 29.6698 28.1309C30.5397 28.1394 31.4028 27.9765 32.2097 27.6515C33.0167 27.3264 33.7517 26.8456 34.3728 26.2365C34.9939 25.6274 35.489 24.902 35.8297 24.1015C36.1705 23.3011 36.3502 22.4414 36.3587 21.5715C36.3824 17.8635 33.448 14.8401 29.7983 14.8105C26.1298 14.7848 23.139 17.7489 23.1104 21.4421ZM34.766 10.7349C34.7692 10.2735 34.9555 9.83217 35.284 9.5081C35.4467 9.34763 35.6394 9.22078 35.8511 9.13478C36.0627 9.04878 36.2893 9.00532 36.5178 9.00688C36.7463 9.00843 36.9722 9.05498 37.1827 9.14386C37.3932 9.23273 37.5842 9.3622 37.7446 9.52486C37.9051 9.68753 38.0319 9.88021 38.1179 10.0919C38.2039 10.3036 38.2474 10.5301 38.2458 10.7586C38.2484 10.9894 38.2047 11.2184 38.1175 11.432C38.0303 11.6457 37.9012 11.8398 37.738 12.0029C37.5747 12.166 37.3804 12.2949 37.1667 12.3818C36.9529 12.4688 36.7239 12.5122 36.4931 12.5094C35.515 12.5025 34.766 11.7318 34.766 10.7349Z" fill="#38B2A7"/>
</svg>

<svg xmlns="http://www.w3.org/2000/svg" width="62" height="62" fill="none"><path d="M31.538 52.911c-5.742.084-10.425-4.841-10.317-10.532.046-2.737 1.17-5.346 3.129-7.259s4.594-2.974 7.331-2.954c5.47.015 10.049 4.709 10.148 10.183.105 5.8-4.676 10.651-10.291 10.562zm8.443-10.307c.035-4.701-3.724-8.538-8.398-8.574s-8.484 3.745-8.524 8.445a8.52 8.52 0 0 0 8.424 8.612c4.623.058 8.463-3.775 8.498-8.482zM21.242 21.495a8.51 8.51 0 0 1 2.463-6.058 8.51 8.51 0 0 1 6.034-2.521c4.663-.009 8.505 3.842 8.512 8.532.008 4.757-3.773 8.609-8.464 8.622-4.76.013-8.53-3.773-8.544-8.576zm1.868-.053c-.008.87.154 1.733.48 2.54s.806 1.542 1.415 2.163 1.335 1.116 2.135 1.457 1.66.52 2.53.529 1.733-.155 2.54-.48 1.542-.806 2.163-1.415 1.116-1.335 1.457-2.135.52-1.66.529-2.53c.024-3.708-2.911-6.731-6.56-6.761-3.669-.026-6.659 2.938-6.688 6.632zm11.656-10.707a1.74 1.74 0 0 1 1.085-1.6 1.74 1.74 0 0 1 1.332.009 1.74 1.74 0 0 1 .935.948 1.74 1.74 0 0 1 .128.667 1.73 1.73 0 0 1-.128.673c-.087.214-.216.408-.38.571a1.73 1.73 0 0 1-1.245.507c-.978-.007-1.727-.778-1.727-1.774z" fill="#38b2a7"/></svg>
